X: 39
T: Dulces exuvie
N: Derived from Ort3002-Dulces_exuvie.krn
C: Marbrianus de Orto
%%abc-version 2.0
%%abcx-abcm2ps-target-version 5.9.1 (29 Sep 2008)
%%abc-creator hum2abc beta
%%abcx-conversion-date 2019/02/17 07:28:38
%%abc-edited-by Jesse Rodin
%%abc-edited-by Jesse Rodin 8/6/2013
%%abcx-initial-encoding-date 2013/08/06/
%%humdrum-veritas 3958889583
%%humdrum-veritas-data 3241920882
%%linebreak <none>
%%barnumbers 0
L: 1/4
M: 2/1
Q: 1/2=120
%%staves [1 2 3 4]
V: 1 clef=treble
V: 2 clef=treble-8
V: 3 clef=treble-8
V: 4 clef=bass
K: C
[V:1] z8 | 
[V:2] z8 | 
[V:3] z8 | 
[V:4] E,8- | 
[V:1] z8 | 
[V:2] z8 | 
[V:3] B8- | 
[V:4] E,8 | 
[V:1] z8 | 
[V:2] z8 | 
[V:3] B8 | 
[V:4] B,,8 | 
[V:1] z8 | 
[V:2] z8 | 
[V:3] E8 | 
[V:4] C,6B,,2 | 
[V:1] z8 | 
[V:2] z8 | 
[V:3] c8 | 
[V:4] A,,4F,4 | 
[V:1] z8 | 
[V:2] z8 | 
[V:3] B4A4 | 
[V:4] D,2E,2F,4 | 
[V:1] z8 | 
[V:2] e8- | 
[V:3] c2B2B4 | 
[V:4] E,8 | 
[V:1] B8 | 
[V:2] e8 | 
[V:3] z8 | 
[V:4] z8 | 
[V:1] c8 | 
[V:2] A8 | 
[V:3] z8 | 
[V:4] z8 | 
[V:1] c6BA | 
[V:2] f8 | 
[V:3] z8 | 
[V:4] z8 | 
[V:1] A4c4- | 
[V:2] f6e2 | 
[V:3] z8 | 
[V:4] z8 | 
[V:1] c2BcB2A2- | 
[V:2] e4d4 | 
[V:3] z8 | 
[V:4] z8 | 
[V:1] A2c2B2AG | 
[V:2] f2e2g4 | 
[V:3] z8 | 
[V:4] z8 | 
[V:1] A2G2F4 | 
[V:2] f2e4d2 | 
[V:3] z8 | 
[V:4] z8 | 
[V:1] E8 | 
[V:2] e4z4 | 
[V:3] c6B2 | 
[V:4] C,8- | 
[V:1] z8 | 
[V:2] E4F4 | 
[V:3] A2G2d4 | 
[V:4] C,4B,,4 | 
[V:1] B4d4 | 
[V:2] G4D4 | 
[V:3] D4z2G2- | 
[V:4] G,,8 | 
[V:1] c8 | 
[V:2] z8 | 
[V:3] G2^FE^F4 | 
[V:4] A,,8 | 
[V:1] B8 | 
[V:2] d8 | 
[V:3] G8 | 
[V:4] G,,8 | 
[V:1] E4F4- | 
[V:2] c4d4- | 
[V:3] A4D4 | 
[V:4] z4_B,,4- | 
[V:1] F8 | 
[V:2] d8 | 
[V:3] _B4A4 | 
[V:4] B,,4D,4 | 
[V:1] E4G4 | 
[V:2] G4d3c | 
[V:3] c4=B4 | 
[V:4] C,4G,,4 | 
[V:1] F8 | 
[V:2] A4cBBA | 
[V:3] z4F4 | 
[V:4] D,8 | 
[V:1] E8 | 
[V:2] c4e4- | 
[V:3] G2A2G2E2 | 
[V:4] C,8 | 
[V:1] G8 | 
[V:2] e2dce4 | 
[V:3] E4z2C2 | 
[V:4] z8 | 
[V:1] F4E2G2 | 
[V:2] z2ABcde2 | 
[V:3] DEFGA2E2 | 
[V:4] z4z2C,2 | 
[V:1] F2E4G2 | 
[V:2] d2g3fe2 | 
[V:3] z8 | 
[V:4] D,2C,2E,4 | 
[V:1] FEDCD4 | 
[V:2] d2c4B2 | 
[V:3] z8 | 
[V:4] z2E,2F,2G,2 | 
[V:1] C4z4 | 
[V:2] c8 | 
[V:3] e8 | 
[V:4] A,2A,,2A,,4 | 
[V:1] c4B4 | 
[V:2] z8 | 
[V:3] e4e4 | 
[V:4] A,4G,2E,2 | 
[V:1] B4A2G2 | 
[V:2] z8 | 
[V:3] d4c2e2 | 
[V:4] G,3D,F,2E,2 | 
[V:1] z2A2G2c2 | 
[V:2] z8 | 
[V:3] d2c4e2 | 
[V:4] F,4E,2A,,2 | 
[V:1] B2A4^G2 | 
[V:2] e8 | 
[V:3] dcBAB4 | 
[V:4] z2A,,2E,4 | 
[V:1] A4A4 | 
[V:2] c4f4 | 
[V:3] A4d4 | 
[V:4] F,4D,4 | 
[V:1] d6c2 | 
[V:2] f4g4- | 
[V:3] dcBAG4 | 
[V:4] z8 | 
[V:1] B2A2G2F2 | 
[V:2] g2f2e2d2 | 
[V:3] z4C2D2 | 
[V:4] z8 | 
[V:1] E2D2G2F2- | 
[V:2] c2BAB2c2- | 
[V:3] E2F2G2A2 | 
[V:4] z8 | 
[V:1] FEE4D2 | 
[V:2] cBB4A2 | 
[V:3] E4F4 | 
[V:4] z8 | 
[V:1] E8 | 
[V:2] c2B4e2 | 
[V:3] E8 | 
[V:4] z4E,4 | 
[V:1] A8- | 
[V:2] d2c2d2f2- | 
[V:3] z8 | 
[V:4] F,4F,3E, | 
[V:1] A8 | 
[V:2] fee4d2 | 
[V:3] z2c4A2 | 
[V:4] D,2C,2F,4 | 
[V:1] G8 | 
[V:2] e8 | 
[V:3] B2E2B4 | 
[V:4] E,8 | 
[V:1] z8 | 
[V:2] e4c2d2- | 
[V:3] c3BAGFE | 
[V:4] A,,2E,2F,E,D,C, | 
[V:1] z8 | 
[V:2] d2B2A2d2 | 
[V:3] G4F4 | 
[V:4] B,,2E,4D,2 | 
[V:1] z8 | 
[V:2] c2B4A2 | 
[V:3] z4E4 | 
[V:4] E,2B,,2C,4 | 
[V:1] d8 | 
[V:2] B8 | 
[V:3] D4G2G2 | 
[V:4] B,,4G,,4 | 
[V:1] c4c2c2 | 
[V:2] z8 | 
[V:3] E4F4 | 
[V:4] A,,8 | 
[V:1] B4A4 | 
[V:2] d4c2A2- | 
[V:3] G4E4 | 
[V:4] G,,4A,,4 | 
[V:1] d8 | 
[V:2] A2GFG2G2 | 
[V:3] D4z2G2 | 
[V:4] B,,8 | 
[V:1] z4G4 | 
[V:2] E8 | 
[V:3] c4B4 | 
[V:4] A,,4z4 | 
[V:1] c8 | 
[V:2] F4E4 | 
[V:3] z4e4- | 
[V:4] F,,3G,,A,,B,,C,D, | 
[V:1] B4A4- | 
[V:2] E4z2F2- | 
[V:3] e4c4 | 
[V:4] E,4F,4 | 
[V:1] A4G4 | 
[V:2] FGABcd2^c | 
[V:3] d4G4 | 
[V:4] D,4E,4 | 
[V:1] ^F6EF | 
[V:2] d4d4 | 
[V:3] A8 | 
[V:4] D,8 | 
[V:1] G4z4 | 
[V:2] B8 | 
[V:3] G8 | 
[V:4] G,,8 | 
[V:1] ^C8- | 
[V:2] A6GF | 
[V:3] E8 | 
[V:4] A,,8 | 
[V:1] C8 | 
[V:2] E4^c4 | 
[V:3] A8 | 
[V:4] A,,8 | 
[V:1] F8- | 
[V:2] d6cB | 
[V:3] D2E2F2G2 | 
[V:4] _B,,6A,,G,, | 
[V:1] F4D4 | 
[V:2] c4G4- | 
[V:3] A4B4 | 
[V:4] F,,4G,,4 | 
[V:1] G6FE | 
[V:2] G2E2E4 | 
[V:3] c4B2c2- | 
[V:4] z8 | 
[V:1] G4F4 | 
[V:2] e4d2c2- | 
[V:3] c2C2D2A2- | 
[V:4] z8 | 
[V:1] E2E4D2 | 
[V:2] c2B4A2 | 
[V:3] A2G2F4 | 
[V:4] z8 | 
[V:1] E4z4 | 
[V:2] c8- | 
[V:3] E2A4G2- | 
[V:4] C,8 | 
[V:1] z8 | 
[V:2] c4G4 | 
[V:3] G2E4DC | 
[V:4] C,6B,,A,, | 
[V:1] B8- | 
[V:2] z2g4fe | 
[V:3] E2D2d4- | 
[V:4] G,,8 | 
[V:1] B8 | 
[V:2] d4d4 | 
[V:3] d4B4 | 
[V:4] G,8 | 
[V:1] c6BA | 
[V:2] f2e4d2 | 
[V:3] A8 | 
[V:4] F,4F,4 | 
[V:1] ^G8 | 
[V:2] e8- | 
[V:3] B8 | 
[V:4] E,8 | 
[V:1] z4c4 | 
[V:2] e4e4 | 
[V:3] E4E3F | 
[V:4] C,3B,,A,,2C,2 | 
[V:1] B2A2G4 | 
[V:2] d2c2B4 | 
[V:3] G2E4B2 | 
[V:4] G,,2A,,2E,4 | 
[V:1] A2c2B2A2 | 
[V:2] e4z2d2 | 
[V:3] c2BAG2A2 | 
[V:4] A,,2E,4F,2 | 
[V:1] G2d3cBA | 
[V:2] e2B2A2d2 | 
[V:3] B4z2D2 | 
[V:4] E,2D,2F,4 | 
[V:1] G2c2B2A2 | 
[V:2] B2A2d2c2- | 
[V:3] E2F2G2E2 | 
[V:4] E,2A,,2G,,2A,,2 | 
[V:1] G2A3^GG^F | 
[V:2] c2f2e4 | 
[V:3] c2d2B4 | 
[V:4] E,2D,2E,4 | 
[V:1] A8 |]  
[V:2] f3ee4 |]  
[V:3] A8 |]  
[V:4] A,,8 |]  



